X: 558
T: Xiang qinggei
%%abc-version 2.0
%%abcx-abcm2ps-target-version 5.9.1 (29 Sep 2008)
%%abc-creator hum2abc beta
%%abcx-conversion-date 2013/10/02 07:52:30
%%abc-edited-by Helmut Schaffrath
%%humdrum-veritas 3138809072
%%humdrum-veritas-data 569135852
%%continueall 1
%%barnumbers 0
L: 1/16
M: 2/4
K: F
F2 G A F2 E D [I:setbarnb 1]| 
c2 d fc4 | 
c2 d2 f2 c A | 
c2 G AG4 | 
c2 G A c E3 | 
D F G AF4 | 
F2 G A A2 F D | 
C2 D FC4 |]  



